flags/xx.svg

<svg width="512" height="512" viewBox="0 0 512 512" fill="none" xmlns="http://www.w3.org/2000/svg">
<rect width="512" height="512" fill="var(--flag-palette-white, #eeeeee)"/>
<path fill-rule="evenodd" clip-rule="evenodd" d="M0 64V0H64V32H32V64H0ZM234.667 0H106.667V32H234.667V0ZM277.333 0V32H405.333V0H277.333ZM448 0V32H480V64H512V0H448ZM512 106.667H480V234.667H512V106.667ZM512 277.333H480V405.333H512V277.333ZM512 448H480V480H448V512H512V448ZM405.333 512V480H277.333V512H405.333ZM234.667 512V480H106.667V512H234.667ZM64 512V480H32V448H0V512H64ZM0 405.333H32V277.333H0V405.333ZM0 234.667H32V106.667H0V234.667Z" fill="var(--flag-palette-mid-grey-3, #acabb1)"/>
<path d="M256.9 115.199C285 115.199 306.8 121.899 322.4 135.499C337.9 149.099 345.6 168.099 345.7 192.799C345.732 203.853 343.126 214.754 338.1 224.599C331.156 237.023 322.24 248.235 311.7 257.799L295.5 272.999C285.811 281.825 279.662 293.874 278.2 306.899L277.4 319.999H226.4C226.4 301.499 228.7 285.799 233.2 274.799C238.903 262.286 247.385 251.24 258 242.499C267.165 235.015 275.213 226.26 281.9 216.499C285.9 209.899 287.9 202.799 287.9 195.399C287.9 172.999 277.6 161.999 256.9 161.999C247.1 161.999 239.2 164.899 233.4 170.999C227.19 177.74 223.853 186.637 224.1 195.799L224 204.799H166.4V191.999H166.6C166.576 181.583 168.724 171.276 172.908 161.737C177.093 152.198 183.22 143.636 190.9 136.599C207 122.399 229 115.199 256.9 115.199Z" fill="var(--flag-palette-mid-grey-3, #acabb1)"/>
<path d="M285 380C285 397.673 270.673 412 253 412C235.327 412 221 397.673 221 380C221 362.327 235.327 348 253 348C270.673 348 285 362.327 285 380Z" fill="var(--flag-palette-mid-grey-3, #acabb1)"/>
</svg>

<svg xmlns="http://www.w3.org/2000/svg" width="512" height="512" fill="none"><path fill="var(--flag-palette-white, #eeeeee)" d="M0 0h512v512H0z"/><path fill="var(--flag-palette-mid-grey-3, #acabb1)" fill-rule="evenodd" d="M0 64V0h64v32H32v32zM234.7 0h-128v32h128zm42.6 0v32h128V0zM448 0v32h32v32h32V0zm64 106.7h-32v128h32zm0 170.6h-32v128h32zm0 170.7h-32v32h-32v32h64zm-106.7 64v-32h-128v32zm-170.6 0v-32h-128v32zM64 512v-32H32v-32H0v64zM0 405.3h32v-128H0zm0-170.6h32v-128H0z" clip-rule="evenodd"/><path fill="var(--flag-palette-mid-grey-3, #acabb1)" d="M256.9 115.2q42.1 0 65.5 20.3 23.2 20.3 23.3 57.3c0 11-2.6 22-7.6 31.8q-10.6 18.7-26.4 33.2L295.5 273a54 54 0 0 0-17.3 33.9l-.8 13.1h-51c0-18.5 2.3-34.2 6.8-45.2a90 90 0 0 1 24.8-32.3q13.8-11.3 23.9-26 6-10 6-21.1 0-33.5-31-33.4-14.7 0-23.5 9a35 35 0 0 0-9.3 24.8l-.1 9h-57.6V192h.2a75 75 0 0 1 24.3-55.4q24.2-21.3 66-21.4M285 380a32 32 0 1 1-64 0 32 32 0 0 1 64 0"/></svg>
